assets/gcpdebugger/original.svg

<svg height="24" width="24" xmlns="http://www.w3.org/2000/svg"><path d="m0 0h24v24h-24z" fill="none"/><g fill-rule="evenodd"><path d="m5.4 12.7h4v-1.4h-4zm-.8 7.7 6.6-6.6-.9-.9-6.6 6.6zm-.6-15.5 6.6 6.6.9-.9-6.6-6.6zm10.6 7.8h4v-1.4h-4zm-1.8 1.1 6.3 6.2.9-.9-6.2-6.3zm1.7-3.3 5.8-5.9-.9-.9-5.9 5.8z" fill="#3367d6"/><path d="m1.5 22.5h4.5v-4.5h-4.5zm16.5 0h4.5v-4.5h-4.5zm-16.5-16.5h4.5v-4.5h-4.5zm16.5 0h4.5v-4.5h-4.5z" fill="#5c85de"/><path d="m8.2 15.8h7.6v-7.6h-7.6z" fill="#85a4e6"/><path d="m1.5 14.2h4.5v-4.4h-4.5zm16.5 0h4.5v-4.4h-4.5z" fill="#5c85de"/></g></svg>

<svg xmlns="http://www.w3.org/2000/svg" width="24" height="24"><path fill="none" d="M0 0h24v24H0z"/><g fill-rule="evenodd"><path fill="#3367d6" d="M5.4 12.7h4v-1.4h-4zm-.8 7.7 6.6-6.6-.9-.9-6.6 6.6zM4 4.9l6.6 6.6.9-.9L4.9 4zm10.6 7.8h4v-1.4h-4zm-1.8 1.1 6.3 6.2.9-.9-6.2-6.3zm1.7-3.3 5.8-5.9-.9-.9-5.9 5.8z"/><path fill="#5c85de" d="M1.5 22.5H6V18H1.5zm16.5 0h4.5V18H18zM1.5 6H6V1.5H1.5zM18 6h4.5V1.5H18z"/><path fill="#85a4e6" d="M8.2 15.8h7.6V8.2H8.2z"/><path fill="#5c85de" d="M1.5 14.2H6V9.8H1.5zm16.5 0h4.5V9.8H18z"/></g></svg>
